svgs/sharp-regular/square-j.svg

<svg xmlns="http://www.w3.org/2000/svg" viewBox="0 0 448 512"><!--! Font Awesome Pro 6.6.0 by @fontawesome - https://fontawesome.com License - https://fontawesome.com/license (Commercial License) Copyright 2024 Fonticons, Inc. --><path d="M48 80l0 352 352 0 0-352L48 80zM0 32l48 0 352 0 48 0 0 48 0 352 0 48-48 0L48 480 0 480l0-48L0 80 0 32zM304 152l0 136c0 53-43 96-96 96s-96-43-96-96l0-8 0-24 48 0 0 24 0 8c0 26.5 21.5 48 48 48s48-21.5 48-48l0-136 0-24 48 0 0 24z"/></svg>

<svg xmlns="http://www.w3.org/2000/svg" viewBox="0 0 448 512"><!--! Font Awesome Pro 6.5.2 by @fontawesome - https://fontawesome.com License - https://fontawesome.com/license (Commercial License) Copyright 2024 Fonticons, Inc. --><path d="M48 80V432H400V80H48zM0 32H48 400h48V80 432v48H400 48 0V432 80 32zM304 152V288c0 53-43 96-96 96s-96-43-96-96v-8V256h48v24 8c0 26.5 21.5 48 48 48s48-21.5 48-48V152 128h48v24z"/></svg>
